X: 2654
T: Banjo Breakdown
R: jig
M: 6/8
K: Amajor
AAA c2 e|a2 e c2 e|AAA d2 f|a2 f d2 f|
AAA c2 e|a2 e c2 e|BBB c2 e|BBB c2 e|
AAA c2 e|a2 e c2 e|AAA d2 f|a2 f d2 f|
efg agf|e2 d c2 B|Ace aec|A3 A3||
a2 e c2 e|a2 e c2 e|a2 f d2 f|a2 f d2 f|
a2 e c2 e|a2 e c2 e|BBB c2 e|BBB c2 e|
a2 e c2 e|a2 e c2 e|efg agf|e2 d c2 B|
Ace aec|A3 A3||
AAA c2 e|AAA c2 e|BBB d2 f|BBB d2 f|
AAA c2 e|AAA c2 e|B2 e ccc|BBB c2 e|
AAA c2 e|AAA c2 e|BBB d2 f|BBB d2 f|
efg agf|e2 d c2 B2|Ace aec|A3 A3||
aee cee|aee cee|aff dff|aff dff|
aee cee|aee cee|BBB c2 e|BBB c2 e|
aee cee|aee cee|aff dff|aff dff|
efg agf|e2 dc2 B|Ace aec|A3 A3||

